X:1
T:The Dying Californian
M:4/4
L:1/8
K:F
 DE| F3 G A2 ^c2| d4 D2 CD| F3 G A2 ^c2| d6| A^c| d2d-c A2 F2| G2-A/2-G/2 F D2 CD|\
 F2G-F D2 ^C2| D6||
